X:1
T:Hurrah, Lie!
M:4/4
L:1/4
K:F
 F3/4 F/4 A F3/4 F/4 A| C D _E2| F3/4 F/4 A F3/4 F/4 A| B B c2| d3/4 d/4 B c3/4 c/4 G|\
 A3/4 A/4 F G3/4 G/4 C/2 C/4C/4| F A F/2 A F/2| G3/4 F/4G/4 A3/4 F2|\
